dataset/openboard/icon.svg

<?xml version="1.0" encoding="UTF-8" standalone="no"?>
<svg
   height="128px"
   viewBox="0 0 128 128"
   width="128px"
   version="1.1"
   id="svg1457"
   xml:space="preserve"
   xmlns:xlink="http://www.w3.org/1999/xlink"
   xmlns="http://www.w3.org/2000/svg"
   xmlns:svg="http://www.w3.org/2000/svg"><defs
     id="defs1461"><linearGradient
       id="linearGradient13"><stop
         style="stop-color:#ff8a46;stop-opacity:1;"
         offset="0"
         id="stop13" /><stop
         style="stop-color:#e05300;stop-opacity:1;"
         offset="0.5"
         id="stop15" /><stop
         style="stop-color:#7a2d00;stop-opacity:1;"
         offset="1"
         id="stop14" /></linearGradient><linearGradient
       id="linearGradient12"
       gradientUnits="userSpaceOnUse"
       x1="8"
       x2="120.0000075"
       y1="123.99999225"
       y2="123.99999225"
       gradientTransform="translate(-271.8473,-50.5625)"><stop
         offset="0"
         stop-color="#e5a50a"
         id="stop7"
         style="stop-color:#1e1f20;stop-opacity:1;" /><stop
         offset="0.0357143"
         stop-color="#f6d32d"
         id="stop8"
         style="stop-color:#808889;stop-opacity:1;" /><stop
         offset="0.0714286"
         stop-color="#e5a50a"
         id="stop9"
         style="stop-color:#1d1f20;stop-opacity:1;" /><stop
         offset="0.92857099"
         stop-color="#e5a50a"
         id="stop10"
         style="stop-color:#1d1f20;stop-opacity:1;" /><stop
         offset="0.96428603"
         stop-color="#f6d32d"
         id="stop11"
         style="stop-color:#808889;stop-opacity:1;" /><stop
         offset="1"
         stop-color="#e5a50a"
         id="stop12"
         style="stop-color:#1d1f20;stop-opacity:1;" /></linearGradient><linearGradient
       xlink:href="#linearGradient12"
       id="linearGradient7"
       x1="48.767578"
       y1="133.86816"
       x2="160.76758"
       y2="133.86816"
       gradientUnits="userSpaceOnUse"
       gradientTransform="matrix(1,0,0,1.0026437,-40.767578,-59.22207)" /><linearGradient
       xlink:href="#linearGradient13"
       id="linearGradient14"
       x1="92.843597"
       y1="29.045692"
       x2="104.24924"
       y2="35.752617"
       gradientUnits="userSpaceOnUse"
       gradientTransform="translate(-0.09123756,1.4797365)" /></defs><linearGradient
     id="a"
     gradientUnits="userSpaceOnUse"
     x1="8"
     x2="120.0000075"
     y1="123.99999225"
     y2="123.99999225"
     gradientTransform="translate(-271.8473,-50.5625)"><stop
       offset="0"
       stop-color="#e5a50a"
       id="stop1405"
       style="stop-color:#4b2e5c;stop-opacity:1;" /><stop
       offset="0.0357143"
       stop-color="#f6d32d"
       id="stop1407"
       style="stop-color:#8451a1;stop-opacity:1;" /><stop
       offset="0.0714286"
       stop-color="#e5a50a"
       id="stop1409"
       style="stop-color:#4b2e5c;stop-opacity:1;" /><stop
       offset="0.92857099"
       stop-color="#e5a50a"
       id="stop1411"
       style="stop-color:#4b2e5c;stop-opacity:1;" /><stop
       offset="0.96428603"
       stop-color="#f6d32d"
       id="stop1413"
       style="stop-color:#8451a1;stop-opacity:1;" /><stop
       offset="1"
       stop-color="#e5a50a"
       id="stop1415"
       style="stop-color:#4b2e5c;stop-opacity:1;" /></linearGradient><linearGradient
     id="b"
     gradientUnits="userSpaceOnUse"
     x1="46.000003"
     x2="82.000003"
     y1="71.4"
     y2="71.4"><stop
       offset="0"
       stop-color="#1f8455"
       id="stop1418" /><stop
       offset="0.5"
       stop-color="#26a269"
       id="stop1420" /><stop
       offset="1"
       stop-color="#1f8455"
       stop-opacity="0.976471"
       id="stop1422" /></linearGradient><path
     id="path1427-2"
     style="fill:url(#linearGradient7);stroke-width:1.00132"
     d="m 16,25 c -4.417965,0 -8,3.591506 -8,8.021149 v 56.148046 c 0,4.42965 3.582035,8.021149 8,8.021149 H 48.767578 V 125 L 76.50586,97.190344 H 112 c 4.41796,0 8,-3.591499 8,-8.021149 V 33.021149 C 120,28.591506 116.41796,25 112,25 Z" /><path
     id="path1427"
     style="fill:#4e5354;fill-opacity:1;stroke-width:1.00132"
     d="m 16,21 c -4.417965,0 -8,3.591506 -8,8.021149 v 56.148046 c 0,4.429646 3.582035,8.021149 8,8.021149 H 48.767578 V 121 L 76.505859,93.190344 H 112 c 4.41796,0 8,-3.591503 8,-8.021149 V 29.021149 C 120,24.591506 116.41796,21 112,21 Z" /><path
     id="path1427-5"
     style="fill:#ffffff;fill-opacity:1;stroke-width:0.909243"
     d="m 18.718451,24.868165 c -4.096389,0 -6.870085,2.124356 -6.870795,6.063512 v 51.215618 c -7.1e-4,3.939161 2.774406,6.917693 6.870795,6.917693 H 52.707724 V 110.86816 L 74.414209,89.064988 h 34.566551 c 4.09639,0 6.8669,-2.978532 6.8669,-6.917693 V 30.931677 c 0,-3.939156 -2.77051,-6.063512 -6.8669,-6.063512 z" /><path
     style="fill:url(#linearGradient14);stroke-width:2.34165"
     d="m 115.05826,3.0044112 c -1.55995,0.063998 -2.9874,0.8807097 -3.81538,2.1829524 0,0 -22.417192,28.9359854 -30.818001,45.0856434 -2.809452,5.400858 -6.429254,17.094579 -6.429254,17.094579 -1.506531,5.55314 0.227463,7.199904 4.523988,2.930087 0,0 8.986171,-8.358074 12.614802,-13.088331 11.103805,-14.47482 28.067305,-46.976892 28.067305,-46.976892 2.13766,-3.169897 -0.2801,-7.3878904 -4.14346,-7.2280388 z"
     id="path5-3" /></svg>

<svg xmlns="http://www.w3.org/2000/svg" xmlns:xlink="http://www.w3.org/1999/xlink" xml:space="preserve" width="128" height="128" viewBox="0 0 128 128"><defs><linearGradient id="b"><stop offset="0" style="stop-color:#ff8a46;stop-opacity:1"/><stop offset=".5" style="stop-color:#e05300;stop-opacity:1"/><stop offset="1" style="stop-color:#7a2d00;stop-opacity:1"/></linearGradient><linearGradient id="a" x1="8" x2="120" y1="124" y2="124" gradientTransform="translate(-271.847 -50.563)" gradientUnits="userSpaceOnUse"><stop offset="0" stop-color="#e5a50a" style="stop-color:#1e1f20;stop-opacity:1"/><stop offset=".036" stop-color="#f6d32d" style="stop-color:#808889;stop-opacity:1"/><stop offset=".071" stop-color="#e5a50a" style="stop-color:#1d1f20;stop-opacity:1"/><stop offset=".929" stop-color="#e5a50a" style="stop-color:#1d1f20;stop-opacity:1"/><stop offset=".964" stop-color="#f6d32d" style="stop-color:#808889;stop-opacity:1"/><stop offset="1" stop-color="#e5a50a" style="stop-color:#1d1f20;stop-opacity:1"/></linearGradient><linearGradient xlink:href="#a" id="c" x1="48.768" x2="160.768" y1="133.868" y2="133.868" gradientTransform="matrix(1 0 0 1.00264 -40.768 -59.222)" gradientUnits="userSpaceOnUse"/><linearGradient xlink:href="#b" id="d" x1="92.844" x2="104.249" y1="29.046" y2="35.753" gradientTransform="translate(-.091 1.48)" gradientUnits="userSpaceOnUse"/></defs><path d="M16 25c-4.418 0-8 3.592-8 8.021V89.17c0 4.43 3.582 8.021 8 8.021h32.768V125l27.738-27.81H112c4.418 0 8-3.591 8-8.02V33.02c0-4.43-3.582-8.021-8-8.021Z" style="fill:url(#c);stroke-width:1.00132"/><path d="M16 21c-4.418 0-8 3.592-8 8.021V85.17c0 4.43 3.582 8.021 8 8.021h32.768V121l27.738-27.81H112c4.418 0 8-3.591 8-8.02V29.02c0-4.43-3.582-8.021-8-8.021Z" style="fill:#4e5354;fill-opacity:1;stroke-width:1.00132"/><path d="M18.718 24.868c-4.096 0-6.87 2.125-6.87 6.064v51.215c-.001 3.94 2.774 6.918 6.87 6.918h33.99v21.803l21.706-21.803h34.567c4.096 0 6.867-2.979 6.867-6.918V30.932c0-3.94-2.77-6.064-6.867-6.064z" style="fill:#fff;fill-opacity:1;stroke-width:.909243"/><path d="M115.058 3.004a4.75 4.75 0 0 0-3.815 2.183S88.826 34.123 80.425 50.273c-2.81 5.4-6.43 17.095-6.43 17.095-1.506 5.553.228 7.2 4.525 2.93 0 0 8.986-8.358 12.614-13.089 11.104-14.474 28.068-46.977 28.068-46.977 2.137-3.17-.28-7.387-4.144-7.228" style="fill:url(#d);stroke-width:2.34165"/></svg>
